img/slack.svg

<svg width="32" height="33" viewBox="0 0 32 33" fill="none" xmlns="http://www.w3.org/2000/svg">
<g clip-path="url(#clip0_4_1294)">
<path d="M6.54014 21.7527C6.54014 23.6067 5.04176 25.1052 3.18776 25.1052C1.33376 25.1052 -0.164612 23.6067 -0.164612 21.7527C-0.164612 19.8988 1.33376 18.4004 3.18789 18.4004H6.54002L6.54014 21.7527ZM8.21639 21.7527C8.21639 19.8988 9.71476 18.4004 11.5688 18.4004C13.4227 18.4004 14.9211 19.8988 14.9211 21.7528V30.1336C14.9211 31.9877 13.4227 33.4862 11.5687 33.4862C9.71488 33.4862 8.21639 31.9877 8.21639 30.1336V21.7527Z" fill="#E01E5A"/>
<path d="M11.5684 8.29264C9.71445 8.29264 8.21594 6.79427 8.21594 4.94027C8.21594 3.08627 9.71457 1.58789 11.5684 1.58789C13.4223 1.58789 14.9208 3.08627 14.9208 4.94027V8.29277L11.5684 8.29264ZM11.5684 9.99427C13.4225 9.99427 14.9208 11.4926 14.9208 13.3466C14.9208 15.2007 13.4225 16.699 11.5683 16.699H3.16219C1.30807 16.699 -0.190308 15.2007 -0.190308 13.3465C-0.190308 11.4928 1.30807 9.99427 3.16207 9.99427H11.5684Z" fill="#36C5F0"/>
<path d="M25.0032 13.3466C25.0032 11.4926 26.5016 9.99414 28.3554 9.99414C30.2094 9.99414 31.708 11.4926 31.708 13.3466C31.708 15.2007 30.2094 16.699 28.3554 16.699H25.0032V13.3466ZM23.3269 13.3466C23.3269 15.2007 21.8284 16.699 19.9745 16.699C18.1205 16.699 16.6221 15.2007 16.6221 13.3465V4.94039C16.6221 3.08627 18.1205 1.58789 19.9745 1.58789C21.8283 1.58789 23.3268 3.08627 23.3268 4.94027L23.3269 13.3466Z" fill="#2EB67D"/>
<path d="M19.9745 26.7814C21.8284 26.7814 23.3269 28.2798 23.3269 30.1336C23.3269 31.9877 21.8284 33.4862 19.9745 33.4862C18.1205 33.4862 16.6221 31.9877 16.6221 30.1336V26.7814H19.9745ZM19.9745 25.1052C18.1205 25.1052 16.6221 23.6067 16.6221 21.7527C16.6221 19.8988 18.1205 18.4004 19.9746 18.4004H28.3808C30.2348 18.4004 31.7333 19.8988 31.7333 21.7528C31.7333 23.6067 30.2348 25.1052 28.3808 25.1052H19.9745Z" fill="#ECB22E"/>
</g>
<defs>
<clipPath id="clip0_4_1294">
<rect width="32" height="32" fill="white" transform="translate(0 0.75)"/>
</clipPath>
</defs>
</svg>

<svg width="32" height="33" fill="none" xmlns="http://www.w3.org/2000/svg"><g clip-path="url(#a)"><path d="M6.54 21.753a3.35 3.35 0 0 1-3.352 3.352 3.35 3.35 0 0 1-3.353-3.352A3.35 3.35 0 0 1 3.188 18.4H6.54v3.353Zm1.676 0A3.35 3.35 0 0 1 11.57 18.4a3.35 3.35 0 0 1 3.352 3.353v8.38a3.35 3.35 0 0 1-3.352 3.353 3.35 3.35 0 0 1-3.353-3.352v-8.381Z" fill="#E01E5A"/><path d="M11.568 8.293A3.35 3.35 0 0 1 8.216 4.94a3.35 3.35 0 0 1 3.352-3.352 3.35 3.35 0 0 1 3.353 3.352v3.353h-3.353Zm0 1.701a3.35 3.35 0 0 1 3.353 3.353 3.35 3.35 0 0 1-3.353 3.352H3.162A3.35 3.35 0 0 1-.19 13.346a3.35 3.35 0 0 1 3.352-3.352h8.406Z" fill="#36C5F0"/><path d="M25.003 13.347a3.35 3.35 0 0 1 3.352-3.353 3.35 3.35 0 0 1 3.353 3.353 3.35 3.35 0 0 1-3.353 3.352h-3.352v-3.352Zm-1.676 0a3.35 3.35 0 0 1-3.353 3.352 3.35 3.35 0 0 1-3.352-3.353V4.94a3.35 3.35 0 0 1 3.352-3.352 3.35 3.35 0 0 1 3.353 3.352v8.407Z" fill="#2EB67D"/><path d="M19.974 26.781a3.35 3.35 0 0 1 3.353 3.353 3.35 3.35 0 0 1-3.353 3.352 3.35 3.35 0 0 1-3.352-3.352V26.78h3.352Zm0-1.676a3.35 3.35 0 0 1-3.352-3.352 3.35 3.35 0 0 1 3.353-3.353h8.406a3.35 3.35 0 0 1 3.352 3.353 3.35 3.35 0 0 1-3.352 3.352h-8.407Z" fill="#ECB22E"/></g><defs><clipPath id="a"><path fill="#fff" transform="translate(0 .75)" d="M0 0h32v32H0z"/></clipPath></defs></svg>
